**harm	**harte	**kern	**silbe	**kern	**silbe	**rhyme	**timestamp	**phrase	**leadinstrument
*M4/4	*M4/4	*ICvox	*	*ICvox	*	*	*	*	*
*	*	*VRlead	*	*VRbacking*VRharmonize	*	*	*	*	*
*	*	*Hstimme	*	*Nstimme	*	*	*	*	*
*F:	*F:	*F:	*	*F:	*	*	*	*	*
*	*	*M4/4	*	*M4/4	*	*	*	*	*
*	*	*clefC3	*	*clefG2	*	*	*	*	*
1r;	N	r;	.	r;	.	.	0	.	r
=1	=1	=1	=1	=1	=1	=1	=1	=1	=1
*>Letter>A	*>Letter>A	*>Letter>A	*>Letter>A	*>Letter>A	*>Letter>A	*>Letter>A	*>Letter>A	*>Letter>A	*>Letter>A
*>Label>Intro	*>Label>Intro	*>Label>Intro	*>Label>Intro	*>Label>Intro	*>Label>Intro	*>Label>Intro	*>Label>Intro	*>Label>Intro	*>Label>Intro
1I	F:maj	1r	.	1r	.	.	0.592	newline	horns
=2	=2	=2	=2	=2	=2	=2	=2	=2	=2
1IV	B-:maj	1r	.	1r	.	.	3.087	.	horns
=3	=3	=3	=3	=3	=3	=3	=3	=3	=3
1ii	G:min	1r	.	1r	.	.	5.581	.	horns
=4	=4	=4	=4	=4	=4	=4	=4	=4	=4
1III7	A:7	1r	.	1r	.	.	8.076	.	horns
=5	=5	=5	=5	=5	=5	=5	=5	=5	=5
*>Letter>B	*>Letter>B	*>Letter>B	*>Letter>B	*>Letter>B	*>Letter>B	*>Letter>B	*>Letter>B	*>Letter>B	*>Letter>B
*>Label>Verse	*>Label>Verse	*>Label>Verse	*>Label>Verse	*>Label>Verse	*>Label>Verse	*>Label>Verse	*>Label>Verse	*>Label>Verse	*>Label>Verse
1I	F:maj	4.f	I	1r	.	.	10.571	newline	voice
.	.	[8e	had	.	.	.	.	.	.
.	.	4e]	_	.	.	.	.	.	.
.	.	8f	a	.	.	.	.	.	.
.	.	8c#q	_	.	.	.	.	.	.
.	.	8d	dream	.	.	.	.	.	.
=6	=6	=6	=6	=6	=6	=6	=6	=6	=6
.	.	8c#q	_	.	.	.	.	.	.
1IVc	B-:maj/5	8d	_	1r	.	.	13.054	.	voice
.	.	8c#q	_	.	.	.	.	.	.
.	.	4.d	_	.	.	.	.	.	.
.	.	2r	.	.	.	.	.	.	.
=7	=7	=7	=7	=7	=7	=7	=7	=7	=7
1iii	A:min	16c	thin-	1r	.	.	15.538	.	voice
.	.	16c	-king	.	.	.	.	.	.
.	.	16c	that	.	.	.	.	.	.
.	.	16c	a'-	.	.	.	.	.	.
.	.	8c	-you	.	.	.	.	.	.
.	.	16A	were	.	.	.	.	.	.
.	.	[16c	gone.	.	.	A	.	.	.
.	.	4c]	_	.	.	.	.	.	.
.	.	4r	.	.	.	.	.	.	.
=8	=8	=8	=8	=8	=8	=8	=8	=8	=8
1iii	A:min	16c	lea-	1r	.	.	18.022	.	voice
.	.	16c	-ving	.	.	.	.	.	.
.	.	8c	me	.	.	.	.	.	.
.	.	8c	on	.	.	.	.	.	.
.	.	16d	my	.	.	.	.	.	.
.	.	16d	own,	.	.	A	.	.	.
.	.	4e	_	.	.	.	.	.	.
.	.	8c	and	.	.	.	.	.	.
.	.	8c#q	_	.	.	.	.	.	.
.	.	8d	you	.	.	.	.	.	.
=9	=9	=9	=9	=9	=9	=9	=9	=9	=9
.	.	8c#q	_	.	.	.	.	.	.
1IV	B-:maj	8d	_	1r	.	.	20.505	.	voice
.	.	8c#q	_	.	.	.	.	.	.
.	.	8d	_	.	.	.	.	.	.
.	.	8c#q	_	.	.	.	.	.	.
.	.	4d	_	.	.	.	.	.	.
.	.	8r	.	.	.	.	.	.	.
.	.	8d	you	.	.	.	.	.	.
.	.	8c	was	.	.	.	.	.	.
.	.	[8B-	there	.	.	.	.	.	.
=10	=10	=10	=10	=10	=10	=10	=10	=10	=10
1ii	G:min	4B-]	_	1r	.	.	22.989	.	voice
.	.	4r	.	.	.	.	.	.	.
.	.	2r	.	.	.	.	.	.	.
=11	=11	=11	=11	=11	=11	=11	=11	=11	=11
1III7	A:7	8c#	in	1r	.	.	25.472	.	voice
.	.	8c#	some	.	.	.	.	.	.
.	.	8c#	o-	.	.	.	.	.	.
.	.	16e	-ther's	.	.	.	.	.	.
.	.	8Bq	_	.	.	.	.	.	.
.	.	16c#	arms	.	.	B	.	.	.
.	.	8Bq	_	.	.	.	.	.	.
.	.	4c#	_	.	.	.	.	.	.
.	.	4r	.	.	.	.	.	.	.
=12	=12	=12	=12	=12	=12	=12	=12	=12	=12
1III7	A:7	24c#	gi-	1r	.	.	27.956	.	voice
.	.	24c#	-ving	.	.	.	.	.	.
.	.	24c#	a-	.	.	.	.	.	.
.	.	8c#	-way	.	.	.	.	.	.
.	.	8c#	all	.	.	.	.	.	.
.	.	16d	my	.	.	.	.	.	.
.	.	8dq	_	.	.	.	.	.	.
.	.	[16e	charms,	.	.	B	.	.	.
.	.	8e]	_	.	.	.	.	.	.
.	.	8r	.	.	.	.	.	.	.
.	.	8c	and	.	.	.	.	.	.
.	.	8r	.	.	.	.	.	.	.
=13	=13	=13	=13	=13	=13	=13	=13	=13	=13
1I	F:maj	4.f	when	1r	.	.	30.439	newline	voice
.	.	8e	I	.	.	.	.	.	.
.	.	8dq	_	.	.	.	.	.	.
.	.	4e	a-	.	.	.	.	.	.
.	.	8f	-wake	.	.	.	.	.	.
.	.	8c#q	_	.	.	.	.	.	.
.	.	8d	_	.	.	.	.	.	.
=14	=14	=14	=14	=14	=14	=14	=14	=14	=14
.	.	8c#q	_	.	.	.	.	.	.
1IVc	B-:maj/5	8d	_	1r	.	.	32.929	.	voice
.	.	8c#q	_	.	.	.	.	.	.
.	.	[8d	_	.	.	.	.	.	.
.	.	4d]	_	.	.	.	.	.	.
.	.	2r	.	.	.	.	.	.	.
=15	=15	=15	=15	=15	=15	=15	=15	=15	=15
1iii	A:min	4c	I	1r	.	.	35.419	.	voice
.	.	8c	want	.	.	.	.	.	.
.	.	16A	to	.	.	.	.	.	.
.	.	16cQ	_	.	.	.	.	.	.
.	.	[16d	hear	.	.	C	.	.	.
.	.	16d]	_	.	.	.	.	.	.
.	.	16c	you	.	.	.	.	.	.
.	.	8A	_	.	.	.	.	.	.
.	.	4r	.	.	.	.	.	.	.
=16	=16	=16	=16	=16	=16	=16	=16	=16	=16
1iii	A:min	16c	fil-	1r	.	.	37.909	.	voice
.	.	16c	-ling	.	.	.	.	.	.
.	.	8c	my	.	.	.	.	.	.
.	.	8c	life	.	.	.	.	.	.
.	.	16d	with	.	.	.	.	.	.
.	.	[16e	cheer,	.	.	C	.	.	.
.	.	8e]	_	.	.	.	.	.	.
.	.	8r	.	.	.	.	.	.	.
.	.	8c	and	.	.	.	.	.	.
.	.	8c#q	_	.	.	.	.	.	.
.	.	8d	when	.	.	.	.	.	.
=17	=17	=17	=17	=17	=17	=17	=17	=17	=17
.	.	8c#q	_	.	.	.	.	.	.
1IV	B-:maj	8d	_	1r	.	.	40.399	.	voice
.	.	8c#q	_	.	.	.	.	.	.
.	.	[8d	_	.	.	.	.	.	.
.	.	4d]	_	.	.	.	.	.	.
.	.	8r	.	.	.	.	.	.	.
.	.	8d	I	.	.	.	.	.	.
.	.	8c	come	.	.	.	.	.	.
.	.	16d	back	.	.	.	.	.	.
.	.	16c	_	.	.	.	.	.	.
=18	=18	=18	=18	=18	=18	=18	=18	=18	=18
1ii	G:min	4B-	_	1r	.	.	42.889	.	voice
.	.	4r	.	.	.	.	.	.	.
.	.	2r	.	.	.	.	.	.	.
=19	=19	=19	=19	=19	=19	=19	=19	=19	=19
.	.	8Bq	_	.	.	.	.	.	.
1III7	A:7	8c#	you	1r	.	.	45.379	.	voice
.	.	8Bq	_	.	.	.	.	.	.
.	.	8c#	won't	.	.	.	.	.	.
.	.	8Bq	_	.	.	.	.	.	.
.	.	8c#	be	.	.	.	.	.	.
.	.	16B	a-	.	.	.	.	.	.
.	.	[16c#	-lone,	.	.	D	.	.	.
.	.	4c#]	_	.	.	.	.	.	.
.	.	8.r	.	.	.	.	.	.	.
.	.	16~E	cuz	.	.	.	.	.	.
=20	=20	=20	=20	=20	=20	=20	=20	=20	=20
1III7	A:7	4c#	I'll	1r	.	.	47.868	.	voice
.	.	16c#	be	.	.	.	.	.	.
.	.	8d	at	.	.	.	.	.	.
.	.	[16e	home,	.	.	D	.	.	.
.	.	4e]	_	.	.	.	.	.	.
.	.	8eq	_	.	.	.	.	.	.
.	.	4f	say!	.	.	.	.	.	.
=21	=21	=21	=21	=21	=21	=21	=21	=21	=21
*>Letter>C	*>Letter>C	*>Letter>C	*>Letter>C	*>Letter>C	*>Letter>C	*>Letter>C	*>Letter>C	*>Letter>C	*>Letter>C
*>Label>Chorus	*>Label>Chorus	*>Label>Chorus	*>Label>Chorus	*>Label>Chorus	*>Label>Chorus	*>Label>Chorus	*>Label>Chorus	*>Label>Chorus	*>Label>Chorus
1I	F:maj	4r	.	1r	.	.	50.358	newline	voice
.	.	8g#q	_	.	.	.	.	.	.
.	.	8a	Oh	.	.	.	.	.	.
.	.	8g#q	_	.	.	.	.	.	.
.	.	[8a	me,	.	.	.	.	.	.
.	.	4a]	_	.	.	.	.	.	.
.	.	8g	oh	.	.	.	.	.	.
.	.	8e#q	_	.	.	.	.	.	.
.	.	8f#	my!	.	.	.	.	.	.
=22	=22	=22	=22	=22	=22	=22	=22	=22	=22
.	.	8e#q	_	.	.	.	.	.	.
1VI7	D:7	8f#	_	1r	.	.	52.833	.	voice
.	.	8e#q	_	.	.	.	.	.	.
.	.	[8f#	_	.	.	.	.	.	.
.	.	4f#]	_	.	.	.	.	.	.
.	.	2r	.	.	.	.	.	.	.
=23	=23	=23	=23	=23	=23	=23	=23	=23	=23
1IV	B-:maj	4f	Dreams	1r	.	.	55.308	.	voice
.	.	8f	in	.	.	.	.	.	.
.	.	16d	my	.	.	.	.	.	.
.	.	[16f	arms.	.	.	E	.	.	.
.	.	4f]	_	.	.	.	.	.	.
.	.	4r	.	.	.	.	.	.	.
=24	=24	=24	=24	=24	=24	=24	=24	=24	=24
1-VIIm7	E-:9	4f	glad	1r	.	.	57.782	.	voice
.	.	16f	you	.	.	.	.	.	.
.	.	8d	at	.	.	.	.	.	.
.	.	[16f	home	.	.	E	.	.	.
.	.	4f]	_	.	.	.	.	.	.
.	.	8fq	_	.	.	.	.	.	.
.	.	8g	with	.	.	.	.	.	.
.	.	8d#q	_	.	.	.	.	.	.
.	.	8e	me	.	.	.	.	.	.
=25	=25	=25	=25	=25	=25	=25	=25	=25	=25
.	.	8d#q	_	.	.	.	.	.	.
1VII7	E:7	8e	_	1r	.	.	60.257	.	voice
.	.	8d#q	_	.	.	.	.	.	.
.	.	[8e	_	.	.	.	.	.	.
.	.	4e_	_	.	.	.	.	.	.
.	.	4e]	_	.	.	.	.	.	.
.	.	4r	.	.	.	.	.	.	.
=26	=26	=26	=26	=26	=26	=26	=26	=26	=26
1VII7	E:7	2r	.	1r	.	.	62.732	.	voice
.	.	8r	.	.	.	.	.	.	.
.	.	8~E	I'm	.	.	.	.	.	.
.	.	16d-	so	.	.	.	.	.	.
.	.	16c-	_	.	.	.	.	.	.
.	.	8d-	glad	.	.	.	.	.	.
=27	=27	=27	=27	=27	=27	=27	=27	=27	=27
1-iii	A-:min	16c-	_	1r	.	.	65.206	.	voice
.	.	16A-	_	.	.	.	.	.	.
.	.	8G-q	_	.	.	.	.	.	.
.	.	[8A-	_	.	.	.	.	.	.
.	.	4A-]	_	.	.	.	.	.	.
.	.	4r	.	.	.	.	.	.	.
.	.	16r	.	.	.	.	.	.	.
.	.	16c-	It	.	.	.	.	.	.
.	.	16d-	was	.	.	.	.	.	.
.	.	[16f-	on	.	.	.	.	.	.
=28	=28	=28	=28	=28	=28	=28	=28	=28	=28
1-VIm7	D-:7	4f-]	_	1r	.	.	67.681	.	voice
.	.	16d-	ly	.	.	.	.	.	.
.	.	16c-	a	.	.	.	.	.	.
.	.	8d-	dream	.	.	.	.	.	.
.	.	4r	.	.	.	.	.	.	.
.	.	8r	.	.	.	.	.	.	.
.	.	[8ff	Ha	.	.	.	.	.	.
=29	=29	=29	=29	=29	=29	=29	=29	=29	=29
1V7	C:7(11)	1ff_	_	1r	.	.	70.156	.	voice
=30	=30	=30	=30	=30	=30	=30	=30	=30	=30
1V7	C:7(11)	2ff]	_	1r	.	.	72.63	.	voice
.	.	8r	.	.	.	.	.	.	.
.	.	16~c	(vocalizing)	.	.	.	.	.	.
.	.	16d	_	.	.	.	.	.	.
.	.	4f	say!	.	.	.	.	.	.
=31	=31	=31	=31	=31	=31	=31	=31	=31	=31
*>Letter>D	*>Letter>D	*>Letter>D	*>Letter>D	*>Letter>D	*>Letter>D	*>Letter>D	*>Letter>D	*>Letter>D	*>Letter>D
*>Label>Instrumental	*>Label>Instrumental	*>Label>Instrumental	*>Label>Instrumental	*>Label>Instrumental	*>Label>Instrumental	*>Label>Instrumental	*>Label>Instrumental	*>Label>Instrumental	*>Label>Instrumental
1I	F:maj	1r	.	1r	.	.	75.105	newline	horns
=32	=32	=32	=32	=32	=32	=32	=32	=32	=32
1ii	G:min	1r	.	1r	.	.	77.576	.	horns
=33	=33	=33	=33	=33	=33	=33	=33	=33	=33
1iii	A:min	1r	.	1r	.	.	80.046	.	horns
=34	=34	=34	=34	=34	=34	=34	=34	=34	=34
1IV	B-:maj	1r	.	1r	.	.	82.517	.	horns
=35	=35	=35	=35	=35	=35	=35	=35	=35	=35
1iii	A:min	1r	.	4r	.	.	84.988	.	horns
.	.	.	.	4c 4cc	Ooh!	.	.	.	.
.	.	.	.	4cc 4ccc	_	.	.	.	.
.	.	.	.	4a 4aa	_	.	.	.	.
=36	=36	=36	=36	=36	=36	=36	=36	=36	=36
1-iiio	A-:dim	1r	.	1a- 1aa-	_	.	87.459	.	horns
=37	=37	=37	=37	=37	=37	=37	=37	=37	=37
1ii	G:min	1r	.	1r	.	.	89.929	.	horns
=38	=38	=38	=38	=38	=38	=38	=38	=38	=38
1V7	C:7	1r	.	1r	.	.	92.4	.	horns
=39	=39	=39	=39	=39	=39	=39	=39	=39	=39
*>Letter>C	*>Letter>C	*>Letter>C	*>Letter>C	*>Letter>C	*>Letter>C	*>Letter>C	*>Letter>C	*>Letter>C	*>Letter>C
*>Label>Chorus	*>Label>Chorus	*>Label>Chorus	*>Label>Chorus	*>Label>Chorus	*>Label>Chorus	*>Label>Chorus	*>Label>Chorus	*>Label>Chorus	*>Label>Chorus
1I	F:maj	4r	.	4r	.	.	94.871	newline	voice
.	.	8g#q	_	8B-q 8eq 8gq	_	.	.	.	.
.	.	8a	Oh	8c 8f 8a	Oh	.	.	.	.
.	.	8g#q	_	8B-q 8eq 8gq	_	.	.	.	.
.	.	[8a	me,	[8c [8f [8a	me,	.	.	.	.
.	.	4a]	_	4c] 4f] 4a]	_	.	.	.	.
.	.	8g	oh	8c# 8e 8g	oh	.	.	.	.
.	.	8e#q	_	8e#q	_	.	.	.	.
.	.	8f#	my!	8d 8f# 8a	my!	.	.	.	.
=40	=40	=40	=40	=40	=40	=40	=40	=40	=40
.	.	8e#q	_	8cq 8eq 8gq	_	.	.	.	.
1VI7	D:7	4f#	_	2d 2f# 2a	_	.	97.345	.	voice
.	.	[4d	_	.	.	.	.	.	.
.	.	4d]	_	2r	.	.	.	.	.
.	.	4r	.	.	.	.	.	.	.
=41	=41	=41	=41	=41	=41	=41	=41	=41	=41
1IV	B-:maj	4f	Dreams	1r	.	.	99.819	.	voice
.	.	8f	in	.	.	.	.	.	.
.	.	16d	my	.	.	.	.	.	.
.	.	[16f	arms.	.	.	F	.	.	.
.	.	4f]	_	.	.	.	.	.	.
.	.	4r	.	.	.	.	.	.	.
=42	=42	=42	=42	=42	=42	=42	=42	=42	=42
1-VIIm7	E-:9	8f	All	1r	.	.	102.293	.	voice
.	.	8f	I	.	.	.	.	.	.
.	.	8f	have	.	.	.	.	.	.
.	.	16d	to	.	.	.	.	.	.
.	.	[16f	hold	.	.	.	.	.	.
.	.	16f]	_	.	.	.	.	.	.
.	.	8f	since	.	.	.	.	.	.
.	.	8fq	_	.	.	.	.	.	.
.	.	[16g	you've	.	.	.	.	.	.
.	.	16g]	_	.	.	.	.	.	.
.	.	8.f	been	.	.	.	.	.	.
=43	=43	=43	=43	=43	=43	=43	=43	=43	=43
.	.	8dq	_	.	.	.	.	.	.
1VII7	E:7	8e	gone.	1r	.	F	104.767	.	voice
.	.	8dq	_	.	.	.	.	.	.
.	.	[8e	_	.	.	.	.	.	.
.	.	4e]	_	.	.	.	.	.	.
.	.	4r	.	.	.	.	.	.	.
.	.	8r	.	.	.	.	.	.	.
.	.	8~E	I	.	.	.	.	.	.
=44	=44	=44	=44	=44	=44	=44	=44	=44	=44
1VII7	E:7	12d	got	1r	.	.	107.241	.	voice
.	.	12d	through.	.	.	G	.	.	.
.	.	12B	_	.	.	.	.	.	.
.	.	8A-	_	.	.	.	.	.	.
.	.	8r	.	.	.	.	.	.	.
.	.	4r	.	.	.	.	.	.	.
.	.	16r	.	.	.	.	.	.	.
.	.	16c-	May-	.	.	.	.	.	.
.	.	16d-	-be	.	.	.	.	.	.
.	.	[16f-	I	.	.	.	.	.	.
=45	=45	=45	=45	=45	=45	=45	=45	=45	=45
1-iiim7	A-:min7	4f-]	_	1r	.	.	109.715	.	voice
.	.	16d-	can	.	.	.	.	.	.
.	.	16c-	_	.	.	.	.	.	.
.	.	8d-	be	.	.	.	.	.	.
.	.	4r	.	.	.	.	.	.	.
.	.	8r	.	.	.	.	.	.	.
.	.	16~E	some	.	.	.	.	.	.
.	.	[16d	help	.	.	.	.	.	.
=46	=46	=46	=46	=46	=46	=46	=46	=46	=46
1-VIm7	D-:7	16d]	_	1r	.	.	112.19	.	voice
.	.	16d-	to	.	.	.	.	.	.
.	.	16c-	_	.	.	.	.	.	.
.	.	16c-	you.	.	.	G	.	.	.
.	.	4r	.	.	.	.	.	.	.
.	.	4r	.	.	.	.	.	.	.
.	.	8r	.	.	.	.	.	.	.
.	.	[8ff	Hey	.	.	.	.	.	.
=47	=47	=47	=47	=47	=47	=47	=47	=47	=47
1V7	C:7(11)	4.ff]	_	1r	.	.	114.664	.	voice
.	.	16dd	_	.	.	.	.	.	.
.	.	16cc	_	.	.	.	.	.	.
.	.	8dd	_	.	.	.	.	.	.
.	.	8r	.	.	.	.	.	.	.
.	.	8.r	.	.	.	.	.	.	.
.	.	[16e-	Help	.	.	.	.	.	.
=48	=48	=48	=48	=48	=48	=48	=48	=48	=48
1V7	C:7(11)	16e-]	_	1r	.	.	117.138	.	voice
.	.	8.d	me	.	.	.	.	.	.
.	.	16d	to	.	.	G	.	.	.
.	.	16r	.	.	.	.	.	.	.
.	.	8d	a-	.	.	.	.	.	.
.	.	8f	-help	.	.	.	.	.	.
.	.	8d	me	.	.	.	.	.	.
.	.	4f	say!	.	.	.	.	.	.
=49	=49	=49	=49	=49	=49	=49	=49	=49	=49
*>Letter>C2	*>Letter>C2	*>Letter>C2	*>Letter>C2	*>Letter>C2	*>Letter>C2	*>Letter>C2	*>Letter>C2	*>Letter>C2	*>Letter>C2
*>Label>Outro	*>Label>Outro	*>Label>Outro	*>Label>Outro	*>Label>Outro	*>Label>Outro	*>Label>Outro	*>Label>Outro	*>Label>Outro	*>Label>Outro
1I	F:maj	4r	.	4r	.	.	119.612	newline	horns
.	.	8g#q	_	8B-q 8eq 8gq	_	.	.	.	.
.	.	8a	Oh	8c 8f 8a	Oh	.	.	.	.
.	.	8g#q	_	8B-q 8eq 8gq	_	.	.	.	.
.	.	[8a	me,	[8c [8f [8a	me,	.	.	.	.
.	.	4a]	_	4c] 4f] 4a]	_	.	.	.	.
.	.	8g	oh	8c# 8e 8g	oh	.	.	.	.
.	.	8e#q	_	8e#q	_	.	.	.	.
.	.	8f#	my	8d 8f# 8a	my	.	.	.	.
=50	=50	=50	=50	=50	=50	=50	=50	=50	=50
.	.	8e#q	_	8cq 8eq 8gq	_	.	.	.	.
1VI7	D:7	8f#	_	2.d 2.f# 2.a	_	.	122.09	.	horns
.	.	[8d	_	.	.	.	.	.	.
.	.	4d]	_	.	.	.	.	.	.
.	.	2r	.	.	.	.	.	.	.
.	.	.	.	4r	.	.	.	.	.
=51	=51	=51	=51	=51	=51	=51	=51	=51	=51
1IV	B-:maj	4f	Dreams	1r	.	.	124.567	.	horns
.	.	8f	in	.	.	.	.	.	.
.	.	16d	my	.	.	.	.	.	.
.	.	[16f	arms	.	.	H	.	.	.
.	.	4f]	_	.	.	.	.	.	.
.	.	8r	.	.	.	.	.	.	.
.	.	16c	E-	.	.	.	.	.	.
.	.	16d	-ver	.	.	.	.	.	.
=52	=52	=52	=52	=52	=52	=52	=52	=52	=52
1-VIIm7	E-:9	4f	since	1r	.	.	127.045	.	horns
.	.	16f	you	.	.	.	.	.	.
.	.	8d	been	.	.	.	.	.	.
.	.	[16f	gone	.	.	H	.	.	.
.	.	16f]	_	.	.	.	.	.	.
.	.	8f	is	.	.	.	.	.	.
.	.	8gq	_	.	.	.	.	.	.
.	.	[16a	all	.	.	.	.	.	.
.	.	16a]	_	.	.	.	.	.	.
.	.	8.g	I.	.	.	.	.	.	.
=53	=53	=53	=53	=53	=53	=53	=53	=53	=53
1VII7	E:7	4r	.	1r	.	.	129.523	.	horns
.	.	8.r	.	.	.	.	.	.	.
.	.	16~E	I'm	.	.	.	.	.	.
.	.	16e-	glad	.	.	.	.	.	.
.	.	8d	it's	.	.	.	.	.	.
.	.	[16d	on	.	.	.	.	.	.
.	.	16d]	_	.	.	.	.	.	.
.	.	16c	ly	.	.	.	.	.	.
.	.	16c	a	.	.	.	.	.	.
.	.	[16d	dream.	.	.	I	.	.	.
=54	=54	=54	=54	=54	=54	=54	=54	=54	=54
1VII7	E:7	16d]	_	1r	.	.	132.001	.	horns
.	.	16c	_	.	.	.	.	.	.
.	.	8A	_	.	.	.	.	.	.
.	.	8r	.	.	.	.	.	.	.
.	.	16c	Lem-	.	.	.	.	.	.
.	.	16d	-me	.	.	.	.	.	.
.	.	8f	say	.	.	.	.	.	.
.	.	8d	one	.	.	.	.	.	.
.	.	4f	thing!	.	.	I	.	.	.
=55	=55	=55	=55	=55	=55	=55	=55	=55	=55
1I	F:maj	4cc	Hey	4r	.	.	134.478	newline	horns
.	.	.	.	8B-q 8eq 8gq	_	.	.	.	.
.	.	8r	.	8c 8f 8a	Oh	.	.	.	.
.	.	.	.	8B-q 8eq 8gq	_	.	.	.	.
.	.	8g	Oh	[8c [8f [8a	me,	.	.	.	.
.	.	8a	me	4c] 4f] 4a]	_	.	.	.	.
.	.	8r	.	.	.	.	.	.	.
.	.	8g	oh	8c# 8e 8g	oh	.	.	.	.
.	.	8e#q	_	8e#q	_	.	.	.	.
.	.	8f#	my!	8d 8f# 8a	my	.	.	.	.
=56	=56	=56	=56	=56	=56	=56	=56	=56	=56
.	.	8e#q	_	8cq 8eq 8gq	_	.	.	.	.
1VI7	D:7	4f#	_	[2d [2f# [2a	_	.	136.959	.	horns
.	.	[4d	_	.	.	.	.	.	.
.	.	8d]	_	8d] 8f#] 8a]	_	.	.	.	.
.	.	4.r	.	8r	.	.	.	.	.
.	.	.	.	4r	.	.	.	.	.
=57	=57	=57	=57	=57	=57	=57	=57	=57	=57
1IV	B-:maj	4f	Dreams	1r	.	.	139.44	.	horns
.	.	8f	in	.	.	.	.	.	.
.	.	16d	my	.	.	.	.	.	.
.	.	[16f	arms	.	.	J	.	.	.
.	.	4f]	_	.	.	.	.	.	.
.	.	8.r	.	.	.	.	.	.	.
.	.	16~F	is	.	.	.	.	.	.
=58	=58	=58	=58	=58	=58	=58	=58	=58	=58
1-VIIm7	E-:9	8f	all	1r	.	.	141.92	.	horns
.	.	8f	I	.	.	.	.	.	.
.	.	8f	have	.	.	.	.	.	.
.	.	16d	to	.	.	.	.	.	.
.	.	[16f	hold	.	.	.	.	.	.
.	.	16f]	_	.	.	.	.	.	.
.	.	8f	since	.	.	.	.	.	.
.	.	8fq	_	.	.	.	.	.	.
.	.	[16g	you've	.	.	.	.	.	.
.	.	16g]	_	.	.	.	.	.	.
.	.	8.f	been	.	.	.	.	.	.
=59	=59	=59	=59	=59	=59	=59	=59	=59	=59
.	.	8dq	_	.	.	.	.	.	.
1VII7	E:7	8e	gone.	1r	.	J	144.401	.	horns
.	.	8~d	_	.	.	.	.	.	.
.	.	4r	.	.	.	.	.	.	.
.	.	16e	Come	.	.	.	.	.	.
.	.	8d	on	.	.	.	.	.	.
.	.	[16d	back	.	.	.	.	.	.
.	.	16d]	_	.	.	.	.	.	.
.	.	8.d	home.	.	.	J	.	.	.
=60	=60	=60	=60	=60	=60	=60	=60	=60	=60
1V7	C:7	16r	.	1r	.	.	146.882	.	horns
.	.	8a-	Some-	.	.	.	.	.	.
.	.	[16b-	-time	.	.	.	.	.	.
.	.	16b-]	_	.	.	.	.	.	.
.	.	8a-	I	.	.	.	.	.	.
.	.	8b-q	_	.	.	.	.	.	.
.	.	[16cc-	dream	.	.	.	.	.	.
.	.	16cc-]	_	.	.	.	.	.	.
.	.	16b-	a-	.	.	.	.	.	.
.	.	8a-	-bout	.	.	.	.	.	.
.	.	16f	you,	.	.	.	.	.	.
.	.	8f	ba-	.	.	.	.	.	.
.	.	16f	-by!	.	.	.	.	.	.
=61	=61	=61	=61	=61	=61	=61	=61	=61	=61
1I	F:maj	4r	.	4r	.	.	149.362	newline	horns voice fadeout
.	.	8g#q	_	8B-q 8eq 8gq	_	.	.	.	.
.	.	8a	Oh	8c 8f 8a	Oh	.	.	.	.
.	.	8g#q	_	8B-q 8eq 8gq	_	.	.	.	.
.	.	[8a	me,	[8c [8f [8a	me,	.	.	.	.
.	.	4a]	_	4c] 4f] 4a]	_	.	.	.	.
.	.	8cc	oh	8c# 8e 8g	oh	.	.	.	.
.	.	8ccq	_	8e#q	_	.	.	.	.
.	.	[8dd	my	8d 8f# 8a	my	.	.	.	.
=62	=62	=62	=62	=62	=62	=62	=62	=62	=62
.	.	.	.	8cq 8eq 8gq	_	.	.	.	.
1VI7	D:7	4.dd]	_	2.d 2.f# 2.a	_	.	151.629	.	horns voice fadeout
.	.	[8a	_	.	.	.	.	.	.
.	.	4a]	_	.	.	.	.	.	.
.	.	4r	.	4r	.	.	.	.	.
=63	=63	=63	=63	=63	=63	=63	=63	=63	=63
1IV	B-:maj	4f	Dreams	1r	.	.	153.895	.	horns voice fadeout
.	.	8f	in	.	.	.	.	.	.
.	.	16d	my	.	.	.	.	.	.
.	.	[16f	arms	.	.	K	.	.	.
.	.	4f]	_	.	.	.	.	.	.
.	.	8r	.	.	.	.	.	.	.
.	.	[8gg	E	.	.	.	.	.	.
=64	=64	=64	=64	=64	=64	=64	=64	=64	=64
1-VIIm7	E-:9	12gg]	_	1r	.	.	156.161	.	horns voice fadeout
.	.	12ff	ver	.	.	.	.	.	.
.	.	12ff	since	.	.	.	.	.	.
.	.	12dd	you	.	.	.	.	.	.
.	.	12cc	been	.	.	.	.	.	.
.	.	[12ff	gone.	.	.	K	.	.	.
.	.	8ff]	_	.	.	.	.	.	.
.	.	8r	.	.	.	.	.	.	.
.	.	8fq	_	.	.	.	.	.	.
.	.	8g	For	.	.	.	.	.	.
.	.	8dq	_	.	.	.	.	.	.
.	.	8e	me.	.	.	.	.	.	.
=65	=65	=65	=65	=65	=65	=65	=65	=65	=65
.	.	8dq	_	.	.	.	.	.	.
1VII7	E:7	8e	_	1r	.	.	158.427	.	horns voice fadeout
.	.	8r	.	.	.	.	.	.	.
.	.	4r	.	.	.	.	.	.	.
.	.	16e-	All	.	.	.	.	.	.
.	.	8d	I	.	.	.	.	.	.
.	.	[16d	have	.	.	.	.	.	.
.	.	16d]	_	.	.	.	.	.	.
.	.	8c	to	.	.	.	.	.	.
.	.	[16c	do	.	.	.	.	.	.
=66	=66	=66	=66	=66	=66	=66	=66	=66	=66
1V7	C:7	16c]	_	1r	.	.	160.694	.	horns voice fadeout
.	.	8d	is	.	.	.	.	.	.
.	.	[16f	dream	.	.	.	.	.	.
.	.	16f]	_	.	.	.	.	.	.
.	.	8d	a-	.	.	.	.	.	.
.	.	[16f	-bout	.	.	.	.	.	.
.	.	16f]	_	.	.	.	.	.	.
.	.	16d	you.	.	.	.	.	.	.
.	.	16r	.	.	.	.	.	.	.
.	.	8gq	_	.	.	.	.	.	.
.	.	4a	hey!	.	.	.	.	.	.
.	.	16r	.	.	.	.	.	.	.
1r;	N	r;	.	r;	.	.	162.96	.	r
1r;	N	r;	.	r;	.	.	166.643	.	r
*-	*-	*-	*-	*-	*-	*-	*-	*-	*-
!!!BillboardChartDate: 1975/07/19
!!!BillboardPeak: 48
!!!BillboardWeeksOnChart: 6
!!!COC: Al Green
!!!ENC: Nathaniel Condit-Schultz
!!!EST: Awating manual error checking and editing.
!!!OTL: Oh Me, Oh My (Dreams In My Arms)
!!!RDF**harte: Chris Harte's syntax, used by MIREX
!!!RDF**harmony: **recip + pitch class of root + harmonic quality
!!!RDF**leadinstrument: original McGill primary instrumentation annotation
!!!RDF**phrase: newline = linebreak in original McGill transcription
!!!RDF**timestamp: McGill audio timestamp in seconds
!!!RDT: 2017/01/12/
!!!SampleActualRank: 59
!!!SampleID#: 0573
!!!SampleTargetRank: 59
!!!MBID: 86f07300-239d-429b-a875-d06ef5203fd0
